mimetypes/image-x-generic.svg

<svg xmlns="http://www.w3.org/2000/svg" width="48" height="48" viewBox="0 0 48 48"><path d="M42 38V10c0-2.21-1.79-4-4-4H10c-2.21 0-4 1.79-4 4v28c0 2.21 1.79 4 4 4h28c2.21 0 4-1.79 4-4zM17 27l5 6.01L29 24l9 12H10l7-9z"/></svg>

<?xml version="1.0" encoding="UTF-8" standalone="no"?>
<!DOCTYPE svg PUBLIC "-//W3C//DTD SVG 1.1//EN" "http://www.w3.org/Graphics/SVG/1.1/DTD/svg11.dtd">
<svg width="100%" height="100%" viewBox="0 0 48 48" version="1.1" xmlns="http://www.w3.org/2000/svg" xmlns:xlink="http://www.w3.org/1999/xlink" xml:space="preserve" style="fill-rule:evenodd;clip-rule:evenodd;stroke-linejoin:round;stroke-miterlimit:1.41421;">
    <path d="M42,38L42,10C42,7.79 40.21,6 38,6L10,6C7.79,6 6,7.79 6,10L6,38C6,40.21 7.79,42 10,42L38,42C40.21,42 42,40.21 42,38ZM17,27L22,33.01L29,24L38,36L10,36L17,27Z" style="fill:white;fill-rule:nonzero;"/>
</svg>
